X: 14236
T: Furious Woman
R: jig
M: 6/8
K: Dmajor
|:fdA FAd|fef gfe|fdA FAf|Bcd efg|
fdA FAd|fef gfe|fdA FAf|edc d2 f:|
eAA eAA|e2 e def|eAA eAA|efg aba|
eAA eAA|e2 e efg|fdA FAf|edc d2 f:|

